X:195
T:Drunken Doctor. JJo.195, The
B:J.Johnson Choice Collection Vol 8 1758
Z:vmp.Simon Wilson 2013 www.village-music-project.org.uk
Z:Dance added by John Chambers 2017
N:The 2nd strain has 15 bars.
M:6/8
L:1/8
%Q:3/8=90
K:G
|:\
G3G,2d | gdB ecA | Bdc BAG | FAG FED |\
G3G,2d | gdB ecA | BdB AFD | G3G,3 :|
|:\
d3D2d | fag fed | c3/c//d//e//f// ge^c |\
a3dfa | g3^ceg | f/g/af ed^c | d3D3 |
g3dBG | e3AFD | Bdc BAG | FAG FED |\
G3G,2d | gdB ecA | BAG DEF | G3G,3 :|
%%begintext align
%% The 1st Cu. set to the 2d Wo. and hands
%% three round .| the same to the 2d Man ..|
%% lead down two Cu. and cast up one and
%% foot it and turn .| lead thro' the top and
%% cast off and Right and Left.
%%endtext
